X:34
T:Bound To California
M:C
L:1/8
Q:1/4=120
K:A
A2|\
F3 F F2A2|E6   E2|A2B2  c2(dB)|c6 AA|
F3 F D2D2|E2E4 d2|c2(dB) G2G2 |(A2B2c2) A2|
F3 F F2A2|E6   E2|A2B2  c2(dB)|c6 AA|
F3 F D2D2|E2E4 d2|c2(dB) A2G2 |A6  ||
